packages/components/Atoms/Icon/assets/img/rpl_icon_alert_smoke.svg

<svg width="20" height="20" viewBox="0 0 20 20" overflow="visible" xmlns="http://www.w3.org/2000/svg">
  <path d="M5.782 8.703C3.529 9.183 2.033 11.313 2.264 13.586C1.8007 13.7628 1.37914 14.0339 1.026 14.382C0.352769 13.0192 0.00173409 11.52 0 10C0 4.486 4.487 0 10.004 0C15.474 0 19.929 4.415 20 9.868C19.5341 9.37845 18.9706 8.99212 18.346 8.734C17.619 5.565 14.501 3.538 11.351 4.206C9.13 4.68 7.39 6.427 6.86 8.61C6.49819 8.59786 6.13624 8.62942 5.782 8.704V8.703ZM17.303 10.297C18.411 10.599 19.261 11.454 19.504 12.595C19.521 12.675 19.554 12.738 19.587 12.854C18.354 16.98 14.527 20 10.004 20C6.8 20 3.95 18.48 2.118 16.132L2.12 16.125C2.12 15.538 2.88 15.241 3.518 15.095C3.64064 15.0674 3.75618 15.0146 3.85728 14.9399C3.95837 14.8652 4.04279 14.7703 4.10517 14.6611C4.16754 14.552 4.2065 14.4311 4.21955 14.3061C4.23261 14.181 4.21948 14.0547 4.181 13.935C4.15683 13.8559 4.13614 13.7759 4.119 13.695C3.809 12.229 4.726 10.787 6.16 10.482C6.56348 10.3955 6.98179 10.4069 7.38 10.515C7.50924 10.55 7.64463 10.556 7.77646 10.5325C7.90829 10.509 8.03327 10.4566 8.14245 10.3791C8.25162 10.3016 8.34228 10.2008 8.4079 10.0841C8.47353 9.96737 8.51249 9.83757 8.522 9.704C8.656 7.888 9.975 6.358 11.729 5.984C13.932 5.52 16.107 6.963 16.588 9.202C16.61 9.312 16.628 9.422 16.641 9.528C16.6623 9.70752 16.7366 9.8766 16.8546 10.0136C16.9725 10.1506 17.1286 10.2493 17.303 10.297V10.297Z"
    fill="inherit" />
</svg>

<svg width="20" height="20" overflow="visible" xmlns="http://www.w3.org/2000/svg"><path d="M5.782 8.703c-2.253.48-3.749 2.61-3.518 4.883a3.584 3.584 0 00-1.238.796A9.92 9.92 0 010 10C0 4.486 4.487 0 10.004 0c5.47 0 9.925 4.415 9.996 9.868a4.83 4.83 0 00-1.654-1.134c-.727-3.169-3.845-5.196-6.995-4.528C9.13 4.68 7.39 6.427 6.86 8.61a4.5 4.5 0 00-1.078.094v-.001zm11.521 1.594c1.108.302 1.958 1.157 2.201 2.298.017.08.05.143.083.259C18.354 16.98 14.527 20 10.004 20 6.8 20 3.95 18.48 2.118 16.132l.002-.007c0-.587.76-.884 1.398-1.03a.905.905 0 00.663-1.16 2.824 2.824 0 01-.062-.24c-.31-1.466.607-2.908 2.041-3.213a2.587 2.587 0 011.22.033.907.907 0 001.142-.811c.134-1.816 1.453-3.346 3.207-3.72 2.203-.464 4.378.979 4.859 3.218.022.11.04.22.053.326a.908.908 0 00.662.769z" fill="inherit"/></svg>
